X:1
T: The Flowers of Limerick
C:
R:Reel
Q: 232
K:G
M:4/4
L:1/8
GF|DG GF G2 GA|BG cA BG AF|DF FE F2 FG|AG Ac BG FD|
DG GF G2 GA|BA GA Bc de|fe fd cA FA|BG AF G2 GA|
Gg gf g2 ga|bg ga bg af|d^c de fe fg|ab ag fd cA|
dg gf g3d|BA GA Bc de|fe fd cA FA|BG AF G2 GF|
DG GA BA GB|dc Bd cB AG|FG AB cA FA|cB cA BG AF|
GF GA BA Bd|cB AB cd eg|fe fd cA FA|BG AF G2 df|
gd df gb ag|fe de fg af|ec cd ef ge|dc BA Gc BA|
G2 GA BA Bd|cB AB cd eg|fe fd cA FA|BG AF G2||
